X:1
T:The Bonnie Hoose O' Airlie
M:6/4
L:1/8
K:F
 z4 z2 C2| F2 GA B2 AF|
M:6/4
 G/2 F3/2 G/2 A3/2 F4 z2 cA| F2G-AB-dc-A
M:6/4
| A4 G4 z2 C2| F2G-A B2A-F
M:6/4
|G-FG-A F4 z2c-A| F2G-AB-dc-A
M:6/4
| G4 F4 z4|
